www/assets/icons/hive.svg

<svg width="24" height="24" viewBox="0 0 24 24" xmlns="http://www.w3.org/2000/svg" fill='currentColor'><path d="M13.79 8L15.59 5L13.79 2H10.21L8.40998 5L10.21 8H13.79Z"/><path d="M10.21 9L8.40998 12L10.21 15H13.79L15.59 12L13.79 9H10.21Z"/><path d="M16.45 11.51H20.04L21.83 8.51L20.04 5.51H16.45L14.65 8.51L16.45 11.51Z"/><path d="M20.04 12.51H16.45L14.65 15.51L16.45 18.51H20.04L21.83 15.51L20.04 12.51Z"/><path d="M7.54998 11.51L9.34998 8.51L7.54998 5.51H3.95998L2.16998 8.51L3.95998 11.51H7.54998Z"/><path d="M7.54998 12.51H3.95998L2.16998 15.51L3.95998 18.51H7.54998L9.34998 15.51L7.54998 12.51Z"/><path d="M10.21 16L8.40998 19L10.21 22H13.79L15.59 19L13.79 16H10.21Z"/></svg>

<svg xmlns="http://www.w3.org/2000/svg" width="24" height="24" viewBox="0 0 24 24" fill='currentColor'><path d="m13.79 8 1.8-3-1.8-3h-3.58l-1.8 3 1.8 3zm-3.58 1-1.8 3 1.8 3h3.58l1.8-3-1.8-3zm6.24 2.51h3.59l1.79-3-1.79-3h-3.59l-1.8 3zm3.59 1h-3.59l-1.8 3 1.8 3h3.59l1.79-3zm-12.49-1 1.8-3-1.8-3H3.96l-1.79 3 1.79 3zm0 1H3.96l-1.79 3 1.79 3h3.59l1.8-3zM10.21 16l-1.8 3 1.8 3h3.58l1.8-3-1.8-3z"/></svg>
